X: 260
T: The Boyne Water
B: O'Neill's 260
N: "Moderate"
N: "Collected by F.O'Neill"
Z: 1997 by John Chambers <jc@trillian.mit.edu>
M: C
L: 1/8
K:ADor
AG \
| E2e2 efge | dcBA G2AB | c2BA edcB | ABAG E3D |
| E2e2 efge | dcBA G2AB | c2BA edcB | A4 A2 ||
|| ^cd \
| e2a2 a2b2 | a^ge^c d2cd | e2a2 ^gabg | a3^g e2f2 |
| =gfga g2fe | dcBA G2AB | c2BA edcB | A4 A2 ||


